smart-lab/build/images/icons/footer/instagram.svg

<svg width="16" height="16" viewBox="0 0 16 16" fill="none" xmlns="http://www.w3.org/2000/svg">
<path d="M5.77823 8C5.77823 6.77275 6.77288 5.7776 8.00019 5.7776C9.22749 5.7776 10.2227 6.77275 10.2227 8C10.2227 9.22725 9.22749 10.2224 8.00019 10.2224C6.77288 10.2224 5.77823 9.22725 5.77823 8ZM4.5768 8C4.5768 9.89067 6.10944 11.4233 8.00019 11.4233C9.89093 11.4233 11.4236 9.89067 11.4236 8C11.4236 6.10933 9.89093 4.57675 8.00019 4.57675C6.10944 4.57675 4.5768 6.10933 4.5768 8ZM10.7591 4.44101C10.759 4.59924 10.8059 4.75393 10.8937 4.88552C10.9816 5.01712 11.1065 5.1197 11.2526 5.18031C11.3988 5.24092 11.5597 5.25683 11.7149 5.22602C11.8701 5.19522 12.0127 5.11908 12.1246 5.00724C12.2365 4.89541 12.3128 4.75289 12.3437 4.59772C12.3746 4.44255 12.3589 4.28169 12.2984 4.13548C12.2379 3.98928 12.1354 3.86429 12.0038 3.77633C11.8723 3.68838 11.7177 3.6414 11.5594 3.64133H11.5591C11.347 3.64143 11.1436 3.7257 10.9936 3.87564C10.8436 4.02558 10.7593 4.22892 10.7591 4.44101ZM5.30674 13.4265C4.65675 13.3969 4.30345 13.2886 4.06867 13.1972C3.7574 13.076 3.53531 12.9317 3.30181 12.6985C3.06831 12.4653 2.92377 12.2435 2.80312 11.9322C2.7116 11.6975 2.60333 11.3442 2.57378 10.6942C2.54146 9.99147 2.53501 9.78037 2.53501 8.00005C2.53501 6.21973 2.54199 6.00923 2.57378 5.30592C2.60338 4.65595 2.71245 4.30325 2.80312 4.06789C2.9243 3.75664 3.06863 3.53456 3.30181 3.30107C3.53499 3.06757 3.75687 2.92304 4.06867 2.8024C4.30334 2.71088 4.65675 2.60261 5.30674 2.57307C6.00949 2.54075 6.22059 2.53429 8.00019 2.53429C9.77978 2.53429 9.99109 2.54128 10.6944 2.57307C11.3444 2.60267 11.6971 2.71173 11.9325 2.8024C12.2438 2.92304 12.4659 3.06789 12.6994 3.30107C12.9329 3.53424 13.0769 3.75664 13.198 4.06789C13.2896 4.30256 13.3978 4.65595 13.4274 5.30592C13.4597 6.00923 13.4662 6.21973 13.4662 8.00005C13.4662 9.78037 13.4597 9.99088 13.4274 10.6942C13.3978 11.3442 13.289 11.6974 13.198 11.9322C13.0769 12.2435 12.9325 12.4655 12.6994 12.6985C12.4662 12.9315 12.2438 13.076 11.9325 13.1972C11.6978 13.2887 11.3444 13.397 10.6944 13.4265C9.99168 13.4588 9.78058 13.4653 8.00019 13.4653C6.21979 13.4653 6.00928 13.4588 5.30674 13.4265ZM5.25154 1.37371C4.54181 1.40603 4.05683 1.51856 3.63329 1.68336C3.19466 1.85355 2.82334 2.08187 2.45228 2.45232C2.08123 2.82277 1.85349 3.19467 1.68329 3.63328C1.51849 4.05707 1.40595 4.54176 1.37363 5.25147C1.34077 5.96229 1.33325 6.18955 1.33325 8C1.33325 9.81045 1.34077 10.0377 1.37363 10.7485C1.40595 11.4583 1.51849 11.9429 1.68329 12.3667C1.85349 12.8051 2.08128 13.1774 2.45228 13.5477C2.82328 13.918 3.19466 14.146 3.63329 14.3166C4.05763 14.4814 4.54181 14.594 5.25154 14.6263C5.96277 14.6586 6.18966 14.6667 8.00019 14.6667C9.81071 14.6667 10.038 14.6591 10.7488 14.6263C11.4586 14.594 11.9433 14.4814 12.3671 14.3166C12.8054 14.146 13.177 13.9181 13.5481 13.5477C13.9191 13.1772 14.1464 12.8051 14.3171 12.3667C14.4819 11.9429 14.595 11.4582 14.6267 10.7485C14.6591 10.0372 14.6666 9.81045 14.6666 8C14.6666 6.18955 14.6591 5.96229 14.6267 5.25147C14.5944 4.54171 14.4819 4.0568 14.3171 3.63328C14.1464 3.19493 13.9186 2.82336 13.5481 2.45232C13.1776 2.08128 12.8054 1.85355 12.3676 1.68336C11.9433 1.51856 11.4586 1.40549 10.7494 1.37371C10.0385 1.34139 9.81124 1.33333 8.00072 1.33333C6.19019 1.33333 5.96277 1.34085 5.25154 1.37371Z" fill="white"/>
</svg>

<svg width="16" height="16" fill="none" xmlns="http://www.w3.org/2000/svg"><path d="M5.778 8a2.222 2.222 0 114.445 0 2.222 2.222 0 01-4.445 0zM4.577 8a3.423 3.423 0 106.846 0 3.423 3.423 0 00-6.846 0zm6.182-3.559a.8.8 0 10.8-.8.8.8 0 00-.8.8zm-5.452 8.986c-.65-.03-1.004-.138-1.238-.23a2.072 2.072 0 01-.767-.498 2.057 2.057 0 01-.499-.767c-.091-.235-.2-.588-.23-1.238-.032-.703-.038-.914-.038-2.694 0-1.78.007-1.99.039-2.694.03-.65.138-1.003.23-1.238.12-.311.265-.533.498-.767.233-.233.455-.378.767-.499.234-.091.588-.2 1.238-.229.702-.032.914-.039 2.693-.039 1.78 0 1.991.007 2.694.04.65.029 1.003.138 1.238.228.312.121.534.266.767.5.234.232.378.455.499.766.092.235.2.588.23 1.238.032.703.038.914.038 2.694 0 1.78-.006 1.99-.039 2.694-.03.65-.138 1.003-.229 1.238a2.065 2.065 0 01-.499.766 2.072 2.072 0 01-.767.5c-.234.09-.588.199-1.238.229-.702.032-.913.038-2.694.038-1.78 0-1.99-.006-2.693-.038zM5.252 1.373c-.71.032-1.195.145-1.619.31a3.27 3.27 0 00-1.18.768c-.372.37-.6.743-.77 1.181-.165.424-.277.909-.31 1.618-.032.711-.04.939-.04 2.749s.008 2.038.04 2.748c.033.71.145 1.195.31 1.619.17.438.398.81.77 1.18.37.371.742.599 1.18.77.425.164.909.277 1.619.31.71.032.938.04 2.748.04 1.81 0 2.038-.008 2.749-.04.71-.033 1.194-.146 1.618-.31a3.28 3.28 0 001.181-.77c.371-.37.598-.742.77-1.18.164-.424.277-.909.309-1.619.032-.71.04-.938.04-2.748 0-1.81-.008-2.038-.04-2.749-.033-.71-.145-1.194-.31-1.618a3.278 3.278 0 00-.769-1.18 3.263 3.263 0 00-1.18-.77c-.425-.164-.91-.278-1.619-.31-.71-.032-.938-.04-2.748-.04-1.81 0-2.038.008-2.75.04z" fill="#fff"/></svg>
